img/search.svg

<svg width="25" height="25" viewBox="0 0 25 25" fill="none" xmlns="http://www.w3.org/2000/svg">
<path fill-rule="evenodd" clip-rule="evenodd" d="M17.5554 16.4665L23.9562 22.9222C24.1812 23.1493 24.3075 23.4572 24.3074 23.7782C24.3073 24.0992 24.1807 24.4071 23.9556 24.634C23.7305 24.8609 23.4252 24.9883 23.1069 24.9882C22.7886 24.9881 22.4834 24.8604 22.2584 24.6334L15.8576 18.1777C13.9441 19.6724 11.5379 20.3758 9.12853 20.1448C6.71912 19.9138 4.48746 18.7657 2.88755 16.9341C1.28763 15.1024 0.439652 12.7249 0.516107 10.2851C0.592562 7.84528 1.58771 5.52648 3.29911 3.80042C5.0105 2.07435 7.30959 1.07067 9.72866 0.993565C12.1477 0.916455 14.5051 1.77171 16.3211 3.38533C18.1372 4.99895 19.2755 7.24974 19.5046 9.67981C19.7336 12.1099 19.0362 14.5367 17.5542 16.4665H17.5554ZM10.0302 17.7877C11.9235 17.7877 13.7392 17.0291 15.0779 15.6789C16.4166 14.3288 17.1687 12.4975 17.1687 10.588C17.1687 8.67855 16.4166 6.84728 15.0779 5.49708C13.7392 4.14689 11.9235 3.38835 10.0302 3.38835C8.13697 3.38835 6.32127 4.14689 4.98254 5.49708C3.64382 6.84728 2.89173 8.67855 2.89173 10.588C2.89173 12.4975 3.64382 14.3288 4.98254 15.6789C6.32127 17.0291 8.13697 17.7877 10.0302 17.7877V17.7877Z" fill="#737373"/>
</svg>

<svg width="25" height="25" fill="none" xmlns="http://www.w3.org/2000/svg"><path fill-rule="evenodd" clip-rule="evenodd" d="m17.555 16.466 6.401 6.456a1.216 1.216 0 0 1 0 1.712 1.195 1.195 0 0 1-1.698 0l-6.4-6.456a9.461 9.461 0 0 1-12.97-1.244 9.65 9.65 0 0 1-2.372-6.649A9.64 9.64 0 0 1 3.3 3.8 9.48 9.48 0 0 1 9.73.994a9.47 9.47 0 0 1 6.592 2.391 9.658 9.658 0 0 1 1.233 13.081h.001Zm-7.525 1.322a7.108 7.108 0 0 0 5.048-2.11 7.23 7.23 0 0 0 2.09-5.09c0-1.91-.751-3.74-2.09-5.09a7.108 7.108 0 0 0-5.048-2.11 7.108 7.108 0 0 0-5.047 2.11 7.231 7.231 0 0 0-2.091 5.09c0 1.91.752 3.74 2.09 5.09a7.108 7.108 0 0 0 5.048 2.11Z" fill="#737373"/></svg>
